!!!ONB: MCCC : IJH0413_03 : Extracted Monophonic Melody
!!!COM: Haydn, Joseph
!!!OPR: String Quartet in B-flat major
!!!OMV: 3
!!!SCT: Hob.III:69 ; Op.71 No.1
!!!ODT: 1793///
**kern
*thru
*k[b-e-]
*B-:
*clefF
*M3/4
8B-
8c
=1
2.d
=2
2e-
4g
=3
2f
4e-
=4
4d
4r
4gg
=5
2ff
4ee-
=6
4dd
4r
8B-
8c
=7
2.d
=8
2e-
4g
=9
2f
4e-
=10
4d
4r
4gg
=11
2ff
4ee-
=12
4dd
4r
4gg
=13
2cc
4gg
=14
2cc
4ff[
=15
4ff]
4gg
4ee
=16
4ff
2r
=17
2.r
=18
2r
4cc
=19
2.dd-
=20
2cc
4ff[
=21
4ff]
4gg
4ee
=22
2r
4ee-[
=23
4ee-]
4ff
4dd
=24
2r
4ee-[
=25
4ee-]
4dd
4cc
=26
4b-
4a
4gg[
=27
4gg]
4ff
4ee-
=28
4dd
4cc
8B-
8c
=29
2.d
=30
2e-
4g
=31
2f
4e-
=32
4d
4r
8ddd
8ccc
=33
4bb-
4ddd
4ff#
=34
4gg
4bb-
4ee-
=35
4dd
4ff
4a
=36
4b-
4dd
4g
=37
2f
4e-
=38
2.d
=39
2.c
=40
4B-
4r
8ff
8cc
=41
8dd
8a
8b-
8f
8b-
8f#
=42
8g
8d
8e-
8c
8gg
8dd
=43
8ee-
8b
8cc
8g
8ee-
8cc
=44
8b-
8a
8g
8f
8ff
8cc
=45
8dd
8a
8b-
8f
8b-
8f#
=46
8g
8d
8e-
8c
8gg
8dd
=47
8ee-
8b
8cc
8ee-
8f
8a
=48
4b-
4r
8cc
8ff
=49
4dd
4r
4aa
=50
4bb-
4r
8ccc
8fff
=51
4ddd
4r
4eee
=52
4fff
4r
4ee
=53
4ff
4aa
4ee
=54
4ff
4aa
4ee
=55
4ff
4ccc
4ee
=56
8ff
8f
8a
8f
8b-
8f
=57
8b
8f
8cc
8f
8dd
8f
=58
8ee-
8f
8a
8f
8b-
8f
=59
8b
8f
8cc
8f
8dd
8f
=60
8ee-
8f
8a
8f
8b-
8f
=61
8b
8f
8cc
8f
8dd
8f
=62
8ee-
8f
8ee
8f
8ff
8cc
=63
8dd
8a
8b-
8f
8b-
8f#
=64
8g
8d
8e-
8c
8gg
8dd
=65
8ee-
8b
8cc
8g
8ee-
8cc
=66
8b-
8a
8g
8f
8ff
8cc
=67
8dd
8a
8b-
8f
8b-
8f#
=68
8g
8d
8e-
8c
8gg
8dd
=69
8ee-
8b
8cc
8ee-
8f
8a
=70
4b-
2r
==
*-
